libs/ui/packages/crypto-icons/src/svg/QSP.svg

<svg width="24" height="24" viewBox="0 0 24 24" fill="none">
<path fill-rule="evenodd" clip-rule="evenodd" d="M8.625 12C8.625 10.1392 10.1392 8.625 12 8.625C13.8608 8.625 15.375 10.1392 15.375 12C15.375 12.4897 15.2678 12.954 15.0795 13.3748L12.852 11.1473L11.148 12.852L13.3755 15.0795C12.9431 15.2742 12.4742 15.3749 12 15.375C11.1052 15.374 10.2473 15.0181 9.61461 14.3854C8.98189 13.7527 8.62599 12.8948 8.625 12ZM17.4847 12C17.4857 10.9407 17.1782 9.90397 16.5997 9.0165L18.75 6.8655L17.1345 5.25L14.9835 7.401C14.124 6.84225 13.101 6.51525 12 6.51525C10.899 6.51525 9.876 6.84225 9.0165 7.40025L6.8655 5.25L5.25 6.8655L7.401 9.0165C6.84225 9.876 6.51525 10.899 6.51525 12C6.51525 13.101 6.843 14.124 7.401 14.9835L5.25 17.1345L6.8655 18.75L9.0165 16.599C9.876 17.1578 10.899 17.4847 12 17.4847C13.101 17.4847 14.124 17.1578 14.9835 16.599L17.1345 18.75L18.75 17.1345L16.599 14.9835C17.1778 14.0961 17.4855 13.0594 17.4847 12Z" fill="#454545"/>
</svg>

<svg width="24" height="24" viewBox="0 0 24 24" fill="none"><path fill="#454545" fill-rule="evenodd" d="M8.625 12A3.38 3.38 0 0 1 12 8.625 3.38 3.38 0 0 1 15.375 12c0 .49-.107.954-.296 1.375l-2.227-2.228-1.704 1.705 2.228 2.227a3.35 3.35 0 0 1-1.376.296A3.38 3.38 0 0 1 8.625 12m8.86 0a5.45 5.45 0 0 0-.885-2.983l2.15-2.151-1.616-1.616-2.15 2.151A5.45 5.45 0 0 0 12 6.515a5.46 5.46 0 0 0-2.983.885L6.866 5.25 5.25 6.866l2.151 2.15a5.46 5.46 0 0 0 0 5.967L5.25 17.135l1.616 1.616 2.15-2.151c.86.559 1.883.886 2.984.886a5.45 5.45 0 0 0 2.983-.886l2.151 2.151 1.616-1.616-2.151-2.15A5.45 5.45 0 0 0 17.485 12" clip-rule="evenodd"/></svg>
